X:514
T:Visa # 514
M:4/4
L:1/16
K: D
Q: 120
F3EF3G A3AA3A| d3cd3e f6z2| g3g B4 e3e A4| A3A B2c2 d8:|
|: f3ef3g a3aa3g| f3ed2e2 f3ff3e| d3cB2G2 e4 e3d| c3AB2c2 d8:|

